X: 26639
T: MicMac Square Dance Tune
R: polka
M: 2/4
K: Adorian
|:cA cd|ed Bc|dB GB|de dB|
cA cd|ed Bc|dB GB|1 A2 A>B:|2 A2 cd||
|:ea ag|ed Bd|ea ag|ab g2|
ea ag|ed Bd|e/f/g e/f/g|BG A2:|

